X:1
T:Battersea, 11.11.11.11
T:Battersea, 11.11.11.11
T:G. Kurze, 1891
T:Public Domain Courtesy of the Cyber Hymnal™
C:G. Kurze, 1891
Z:Public Domain
Z:Courtesy of the Cyber Hymnal™
%%score ( 1 2 ) ( 3 4 )
L:1/8
Q:1/4=110
M:3/4
K:D
V:1 treble 
V:2 treble 
V:3 bass 
V:4 bass 
V:1
 [FA]2 [GB]2 [FA]2 D2 | [A,D]2 [A,C]2 [DA]2 | [DB]2 [FA]2 [EG]2 | [DF]4 [FA]2 | [DB]2 [DA]2 D2 | %5
 [A,D]2 [A,C]2 [DA]2 | [DB]2 G2 c2 | [Dd]4 [Fd]2 | [F^A]2 [GB]2 [Gd]2 | [FA]2 [DF]2 [Fd]2 | %10
 [Ec]2 [Fd]2 [^GB]2 | A4 [Fd]2 | [F^A]2 [DB]2 [Dd]2 | [EA]2 [DF]2 [^DA]2 | [EG]2 [DF]2 [CE]2 x | %15
 D4 |] %16
V:2
 x6 D2 | x6 | x6 | x6 | x4 D2 | x6 | x2 G2 (FE) | x6 | x6 | x6 | x6 | A4 x2 | x6 | x6 | x7 | D4 |] %16
V:3
 [D,D]2 (B,C) [D,D]2 [F,A,]2 | [E,A,]2 [E,A,]2 [F,A,]2 | [G,D]2 [A,D]2 [A,,C]2 | [D,D]4 [D,A,]2 | %4
 G,2 [F,A,]2 [B,,^G,]2 | [A,,A,]2 [A,,E,]2 [F,A,]2 | G,2 [E,B,]2 (A,G,) | [D,F,]4 [D,=C]2 | %8
 [D,=C]2 [D,B,]2 [D,_B,]2 | [D,A,]2 [D,A,]2 [D,A,]2 | [E,B,]2 [D,A,]2 [E,D]2 | [A,,C]4 [B,,D]2 | %12
 [F,C]2 [G,B,]2 [B,,F,]2 | [C,A,]2 [D,A,]2 [B,,B,]2 | [E,B,]2 A,3 z G, | [D,F,]4 |] %16
V:4
 x2 D,2 x4 | x6 | x6 | x6 | ^G,2 x4 | x6 | G,2 A,,2 x2 | x6 | x6 | x6 | x6 | x6 | x6 | x6 | %14
 x2 A,,2 A,,2 x | x4 |] %16

